build/img/svg/popular-block-icon6.svg

<svg width="48" height="44" viewBox="0 0 48 44" fill="none" xmlns="http://www.w3.org/2000/svg">
<path d="M16.7504 3.49216L17.8974 1.85316C18.5314 0.948165 19.7784 0.728163 20.6824 1.36216L28.8734 7.09716C29.7784 7.73116 29.9984 8.97816 29.3644 9.88316L28.2174 11.5212L26.0064 11.1932L24.8594 12.8312L26.4974 13.9782L21.9094 20.5312L20.2704 19.3842L19.1234 21.0222L20.1884 22.9882L19.6144 23.8072C18.9814 24.7122 17.7344 24.9322 16.8294 24.2982L8.6384 18.5632C7.7334 17.9292 7.5134 16.6822 8.1474 15.7772L8.7204 14.9582L10.9324 15.2862L12.0794 13.6482L10.4404 12.5012L15.0294 5.94816L16.6684 7.09516L17.8144 5.45716L16.7504 3.49216Z" stroke="#0061D9" stroke-width="2" stroke-miterlimit="10"/>
<path d="M24.8594 12.8321L20.7644 9.96411" stroke="#0061D9" stroke-width="2" stroke-miterlimit="10"/>
<path d="M19.1255 8.81717L16.6685 7.09717" stroke="#0061D9" stroke-width="2" stroke-miterlimit="10"/>
<path d="M20.2715 19.3861L16.1755 16.5171" stroke="#0061D9" stroke-width="2" stroke-miterlimit="10"/>
<path d="M14.5361 15.3701L12.0791 13.6501" stroke="#0061D9" stroke-width="2" stroke-miterlimit="10"/>
<path d="M22.4824 19.7143L23.3064 20.2803C23.8354 20.6503 24.3974 20.9133 24.9554 21.0533C26.8254 21.5233 28.8544 22.8063 30.4284 24.0563C34.8234 27.5503 41.1084 32.7553 42.1424 33.4793C43.9524 34.7463 45.3704 34.1003 46.3204 32.7423C47.2704 31.3843 47.3934 29.8313 45.5844 28.5643C44.5514 27.8403 37.5104 23.7143 32.7234 20.7803C31.0104 19.7293 29.1114 18.2613 28.0294 16.6653C27.7074 16.1883 27.2674 15.7503 26.7394 15.3803L25.9254 14.7993" stroke="#0061D9" stroke-width="2" stroke-miterlimit="10"/>
<path d="M12.0005 33.1611H9.00049C8.44749 33.1611 8.00049 33.6091 8.00049 34.1611V37.1611" stroke="#0061D9" stroke-width="2" stroke-miterlimit="10"/>
<path d="M25.0005 37.1611V34.1611C25.0005 33.6091 24.5535 33.1611 24.0005 33.1611H15.0005" stroke="#0061D9" stroke-width="2" stroke-miterlimit="10"/>
<path d="M15.0005 37.1611H26.0005C26.5535 37.1611 27.0005 37.6091 27.0005 38.1611V42.1611H6.00049V38.1611C6.00049 37.6091 6.44749 37.1611 7.00049 37.1611H12.0005" stroke="#0061D9" stroke-width="2" stroke-miterlimit="10"/>
<path d="M9.00049 24.1611V28.1611" stroke="#0061D9" stroke-width="2" stroke-miterlimit="10"/>
<path d="M4.50049 25.3672L6.50049 28.8312" stroke="#0061D9" stroke-width="2" stroke-miterlimit="10"/>
<path d="M1.20639 28.6611L4.67041 30.6611" stroke="#0061D9" stroke-width="2" stroke-miterlimit="10"/>
<path d="M0.000488281 33.1611H4.00049" stroke="#0061D9" stroke-width="2" stroke-miterlimit="10"/>
</svg>

<svg width="48" height="44" fill="none" xmlns="http://www.w3.org/2000/svg"><path d="M16.75 3.492l1.147-1.639a2 2 0 012.785-.49l8.191 5.734a2 2 0 01.491 2.786l-1.147 1.638-2.21-.328-1.148 1.638 1.638 1.147-4.588 6.553-1.639-1.147-1.147 1.638 1.065 1.966-.574.82a1.999 1.999 0 01-2.785.49l-8.19-5.735a2 2 0 01-.492-2.786l.573-.819 2.212.328 1.147-1.638-1.639-1.147 4.59-6.553 1.638 1.147 1.146-1.638-1.064-1.965zm8.11 9.34l-4.096-2.868m-1.639-1.147l-2.456-1.72m3.602 12.289l-4.096-2.869m-1.639-1.147l-2.457-1.72m10.403 6.064l.824.566a5.05 5.05 0 001.65.773c1.87.47 3.898 1.753 5.472 3.003 4.395 3.494 10.68 8.7 11.714 9.423 1.81 1.267 3.228.621 4.178-.737.95-1.358 1.073-2.91-.736-4.178-1.033-.724-8.074-4.85-12.86-7.784-1.714-1.05-3.613-2.519-4.695-4.115a5.034 5.034 0 00-1.29-1.285l-.814-.58M12 33.161H9a1 1 0 00-1 1v3m17 0v-3a1 1 0 00-1-1h-9m0 4h11a1 1 0 011 1v4H6v-4a1 1 0 011-1h5m-3-13v4m-4.5-2.794l2 3.464m-5.294-.17l3.464 2M0 33.161h4" stroke="#0061D9" stroke-width="2" stroke-miterlimit="10"/></svg>
